X:1000
T:Bagpipe Scale             
O:Kevin Fraser
Z:Kevin Fraser
B: http://svenax.net/site/canntaireachd/
Q:1/4=120
K:HP
M:4/4
L:1/4
R:March
V:gstem=up stem=down
%%MIDI gracedivider 4
%%MIDI gchord
%%MIDI beatstring
%%staves {1 }
T:Nether Lorn Canntaireachd
V:1
|: a  g   f    e  | d   c   B   A  |  G :|
w:  A  G   F    E  | D   C   B   A  |  G     
w:  I  di  ve   e| a o io en | em
w: ee Jee vay  ay | ah  aw  oh  en |  em
w:
w:
T: Alternate Canntaireachd (Campbell)
%%staves {1 }
V:1
|: a  g   f    e  | d   c   B   A  |  G  :|
w: A  G   F    E  | D   C   B   A  |  G     
w: I  vi  dhe  de | da/ba o o en | em
w: ee vee che  ay | da  oh  oh  un |  um
W: In the Canntaireachd lines the top line will be the "written" representation
W: and the 2nd line will be the spoken (sung) pronounciation.
W:
W: There is the Nether Lorn standard, as well as a Campbell variation.  Campbell tried
W: to remove ambiguities.
W:
W:
M:2/4
L:1/2
V:1
%%staves {1 2}
%%staffscale 1.6
T: Alternate Canntaireachd (Kevin Fraser)
|:  a2 | g2 |  f2  |  e2  | d2 |  c2 |  B2 |  A2  |  G2  :|
w:  A  G   F    E  | D   C   B   A  |  G     
w:  I  di  ve   e| a o io en | em
w: ee dee vay  ay | ah  aw  oh  en |  em
W: I am trying to further remove ambiguities.  In Pioberaichd (Pibroch) tunes typically only use 5 notes within the Minor scale, so confusion between o and io typically don't occur.
V:2 clef=none stem=none
%%stafflines 8
%%staffscale 1.6
L:1/2
[K:none][M:2/4][Bdfa]2 |[Bdfg']2 |[Bdfe'g']2 |[Bdfc'e'g']2| [Gac'e'g']2 |[Gfac'e'g']2 |[dfac'e'g']2 |[Bdfac'e'g']2 | [GBdfac'e'g']2||
